client/dist/assets/images/green-phone.svg

<?xml version="1.0" encoding="UTF-8" standalone="no" ?>
<!DOCTYPE svg PUBLIC "-//W3C//DTD SVG 1.1//EN" "http://www.w3.org/Graphics/SVG/1.1/DTD/svg11.dtd">
<svg xmlns="http://www.w3.org/2000/svg" xmlns:xlink="http://www.w3.org/1999/xlink" version="1.1" width="1080" height="1080" viewBox="0 0 1080 1080" xml:space="preserve">
<desc>Created with Fabric.js 5.2.4</desc>
<defs>
</defs>
<rect x="0" y="0" width="100%" height="100%" fill="transparent"></rect>
<g transform="matrix(1 0 0 1 540 540)" id="04c592a1-5b06-4f10-a46b-80958f0e04f4"  >
</g>
<g transform="matrix(1 0 0 1 540 540)" id="700366df-3b4e-4894-b722-d6eeff27ef5c"  >
<rect style="stroke: none; stroke-width: 1; stroke-dasharray: none; stroke-linecap: butt; stroke-dashoffset: 0; stroke-linejoin: miter; stroke-miterlimit: 4; fill: rgb(255,255,255); fill-rule: nonzero; opacity: 1; visibility: hidden;" vector-effect="non-scaling-stroke"  x="-540" y="-540" rx="0" ry="0" width="1080" height="1080" />
</g>
<g transform="matrix(4.1 0 0 4.13 538.59 541.42)"  >
<g style="" vector-effect="non-scaling-stroke"   >
		<g transform="matrix(2.81 0 0 2.81 -4.84 4.83)"  >
<path style="stroke: none; stroke-width: 1; stroke-dasharray: none; stroke-linecap: butt; stroke-dashoffset: 0; stroke-linejoin: miter; stroke-miterlimit: 10; fill: rgb(22,101,52); fill-rule: nonzero; opacity: 1;" vector-effect="non-scaling-stroke"  transform=" translate(-43.28, -46.72)" d="M 47.286 59.801 L 30.199 42.715 C 25.829 38.345000000000006 25.829 31.260000000000005 30.199 26.890000000000004 L 30.199 26.890000000000004 C 32.795 24.294000000000004 33.059000000000005 20.175000000000004 30.817 17.269000000000005 L 22.844 6.934 C 19.540000000000003 2.651 13.224000000000002 2.245 9.399000000000001 6.07 L 9.399000000000001 6.07 C -3.132999999999999 18.602 -3.132999999999999 38.92 9.399000000000001 51.452 L 38.548 80.601 C 51.08 93.133 71.398 93.133 83.93 80.601 L 83.93 80.601 C 87.75500000000001 76.776 87.35000000000001 70.461 83.066 67.156 L 72.731 59.18300000000001 C 69.82499999999999 56.94100000000001 65.705 57.205000000000005 63.10999999999999 59.80100000000001 L 63.10999999999999 59.80100000000001 C 58.74 64.171 51.655 64.171 47.286 59.801 z" stroke-linecap="round" />
</g>
		<g transform="matrix(2.81 0 0 2.81 55.97 -55.97)"  >
<path style="stroke: none; stroke-width: 1; stroke-dasharray: none; stroke-linecap: butt; stroke-dashoffset: 0; stroke-linejoin: miter; stroke-miterlimit: 10; fill: rgb(22,101,52); fill-rule: nonzero; opacity: 1;" vector-effect="non-scaling-stroke"  transform=" translate(-64.92, -25.08)" d="M 86.557 50.164 C 84.656 50.164 83.114 48.622 83.114 46.721000000000004 C 83.114 24.756000000000004 65.244 6.885000000000005 43.278000000000006 6.885000000000005 C 41.377 6.885000000000005 39.83500000000001 5.344000000000005 39.83500000000001 3.442000000000005 C 39.83500000000001 1.5400000000000054 41.377 0 43.279 0 C 69.041 0 90 20.959 90 46.721 C 90 48.622 88.458 50.164 86.557 50.164 z" stroke-linecap="round" />
</g>
		<g transform="matrix(2.81 0 0 2.81 35.09 -35.1)"  >
<path style="stroke: none; stroke-width: 1; stroke-dasharray: none; stroke-linecap: butt; stroke-dashoffset: 0; stroke-linejoin: miter; stroke-miterlimit: 10; fill: rgb(22,101,52); fill-rule: nonzero; opacity: 1;" vector-effect="non-scaling-stroke"  transform=" translate(-57.49, -32.51)" d="M 71.699 50.164 C 69.798 50.164 68.256 48.622 68.256 46.721000000000004 C 68.256 32.949000000000005 57.051 21.744000000000003 43.278999999999996 21.744000000000003 C 41.37799999999999 21.744000000000003 39.836 20.203000000000003 39.836 18.301000000000002 C 39.836 16.400000000000002 41.376999999999995 14.858000000000002 43.278999999999996 14.858000000000002 C 60.848 14.858000000000002 75.142 29.152 75.142 46.721000000000004 C 75.141 48.622 73.6 50.164 71.699 50.164 z" stroke-linecap="round" />
</g>
</g>
</g>
<g transform="matrix(0 0 0 0 0 0)"  >
<g style=""   >
</g>
</g>
</svg>

<svg xmlns="http://www.w3.org/2000/svg" xmlns:xlink="http://www.w3.org/1999/xlink" version="1.1" width="256" height="256" viewBox="0 0 256 256" xml:space="preserve">
<g style="stroke: none; stroke-width: 0; stroke-dasharray: none; stroke-linecap: butt; stroke-linejoin: miter; stroke-miterlimit: 10; fill: none; fill-rule: nonzero; opacity: 1;" transform="translate(1.4065934065934016 1.4065934065934016) scale(2.81 2.81)">
	<path d="M 47.286 59.801 L 30.199 42.715 c -4.37 -4.37 -4.37 -11.455 0 -15.825 l 0 0 c 2.596 -2.596 2.86 -6.715 0.618 -9.621 L 22.844 6.934 c -3.304 -4.283 -9.62 -4.689 -13.445 -0.864 l 0 0 c -12.532 12.532 -12.532 32.85 0 45.382 l 29.149 29.149 c 12.532 12.532 32.85 12.532 45.382 0 l 0 0 c 3.825 -3.825 3.42 -10.14 -0.864 -13.445 l -10.335 -7.973 c -2.906 -2.242 -7.026 -1.978 -9.621 0.618 l 0 0 C 58.74 64.171 51.655 64.171 47.286 59.801 z" style="stroke: none; stroke-width: 1; stroke-dasharray: none; stroke-linecap: butt; stroke-linejoin: miter; stroke-miterlimit: 10; fill: rgb(112,232,56); fill-rule: nonzero; opacity: 1;" transform=" matrix(1 0 0 1 0 0) " stroke-linecap="round"/>
	<path d="M 86.557 50.164 c -1.901 0 -3.443 -1.542 -3.443 -3.443 c 0 -21.965 -17.87 -39.836 -39.836 -39.836 c -1.901 0 -3.443 -1.541 -3.443 -3.443 S 41.377 0 43.279 0 C 69.041 0 90 20.959 90 46.721 C 90 48.622 88.458 50.164 86.557 50.164 z" style="stroke: none; stroke-width: 1; stroke-dasharray: none; stroke-linecap: butt; stroke-linejoin: miter; stroke-miterlimit: 10; fill: rgb(112,232,56); fill-rule: nonzero; opacity: 1;" transform=" matrix(1 0 0 1 0 0) " stroke-linecap="round"/>
	<path d="M 71.699 50.164 c -1.901 0 -3.443 -1.542 -3.443 -3.443 c 0 -13.772 -11.205 -24.977 -24.977 -24.977 c -1.901 0 -3.443 -1.541 -3.443 -3.443 c 0 -1.901 1.541 -3.443 3.443 -3.443 c 17.569 0 31.863 14.294 31.863 31.863 C 75.141 48.622 73.6 50.164 71.699 50.164 z" style="stroke: none; stroke-width: 1; stroke-dasharray: none; stroke-linecap: butt; stroke-linejoin: miter; stroke-miterlimit: 10; fill: rgb(112,232,56); fill-rule: nonzero; opacity: 1;" transform=" matrix(1 0 0 1 0 0) " stroke-linecap="round"/>
</g>
</svg>
